packages/foundations/assets/icons/functional/images/technology/power_socket_32.svg

<svg width="32" height="32" viewBox="0 0 32 32" fill="none" xmlns="http://www.w3.org/2000/svg">
<g clip-path="url(#clip0_187_602)">
<path fill-rule="evenodd" clip-rule="evenodd" d="M2 21.0312V5C2 3.4063 3.3125 2 4.90625 2H21.03C22.655 2 24 3.4063 24 5V13.0362C24 13.5675 23.53 14.005 22.9675 14.005C22.4363 14.005 21.9988 13.5675 21.9988 13.0362V5C21.9988 4.4688 21.5613 4 21.03 4H4.90625C4.375 4 4 4.4688 4 5V21.0312C4 21.5624 4.46875 22 5 22H13.0325C13.5638 22 14.0013 22.4674 14.0013 22.9987C14.0013 23.5612 13.5638 23.9987 13.0325 23.9987L5 24C3.40625 24 2 22.6562 2 21.0312ZM13 6C16.8532 6 20 9.11473 20 13.0001C20 16.8533 16.8532 20 13 20C9.11468 20 6 16.8533 6 13.0001C6 9.11473 9.11468 6 13 6ZM13 8C10.2436 8 8 10.2435 8 13C8 15.7563 10.2436 18 13 18C15.7564 18 18 15.7563 18 13C18 10.2435 15.7564 8 13 8ZM10.9841 12C11.5556 12 12 12.4193 12 13.0001C12 13.5484 11.5556 14 10.9841 14C10.4444 14 10 13.5484 10 13.0001C10 12.4193 10.4444 12 10.9841 12ZM15 12C15.5484 12 16 12.4193 16 13.0001C16 13.5484 15.5484 14 15 14C14.4516 14 14 13.5484 14 13.0001C14 12.4193 14.4516 12 15 12ZM21.9688 16.875C22.1875 16.875 22.4062 16.9375 22.5625 17.0938L24.3438 18.875L25.0312 18.1875C25.25 17.9688 25.5 17.875 25.7188 17.875C25.9375 17.875 26.1562 17.9375 26.3125 18.0938L28.2812 20.0312C29.2812 21 29.8125 22.2812 29.8125 23.5938C29.8125 24.7812 29.375 26 28.4688 27.0938L29.7188 28.3438C29.9062 28.5312 30 28.7812 30 29.0312C30 29.5625 29.5625 30 29.0625 30C28.8438 30 28.5938 29.9062 28.3438 29.7188L27.0938 28.4688C26.1875 29.3438 24.9688 29.8125 23.7188 29.8125C22.4688 29.8125 21.2188 29.375 20.2188 28.4375L18.1875 26.4062C18 26.2188 17.9062 25.9688 17.9062 25.7188C17.9062 25.5 17.9688 25.3125 18.0938 25.125L18.8438 24.375L17.1562 22.6875C16.9688 22.4688 16.875 22.2188 16.875 22C16.875 21.4375 17.3125 21.0312 17.8438 21.0312C18.0625 21.0312 18.2812 21.0938 18.4375 21.2188L20.2188 23L22.9688 20.25L21.2812 18.5312C21.0938 18.3438 21 18.0938 21 17.8438C21 17.3438 21.4688 16.875 21.9688 16.875ZM25.75 20.2188L20.25 25.7188L21.4062 26.9062C22.0312 27.5 22.875 27.875 23.75 27.875C24.4375 27.875 25.125 27.6562 25.6875 27.1562L27.0312 25.8125C27.5938 25.1875 27.875 24.4375 27.875 23.6562C27.875 22.875 27.5938 22.125 27.0312 21.5312L25.75 20.2188Z" fill="#1A1C1F"/>
</g>
<defs>
<clipPath id="clip0_187_602">
<rect width="32" height="32" fill="white"/>
</clipPath>
</defs>
</svg>

<svg xmlns="http://www.w3.org/2000/svg" width="32" height="32" fill="none"><g clip-path="url(#a)"><path fill="#1A1C1F" fill-rule="evenodd" d="M2 21.031V5c0-1.594 1.313-3 2.906-3H21.03C22.655 2 24 3.406 24 5v8.036c0 .532-.47.969-1.032.969a.974.974 0 0 1-.97-.969V5c0-.531-.437-1-.968-1H4.906C4.375 4 4 4.469 4 5v16.031c0 .531.469.969 1 .969h8.033c.53 0 .968.467.968.999a.98.98 0 0 1-.968 1L5 24c-1.594 0-3-1.344-3-2.969M13 6c3.853 0 7 3.115 7 7 0 3.853-3.147 7-7 7-3.885 0-7-3.147-7-7 0-3.885 3.115-7 7-7m0 2c-2.756 0-5 2.243-5 5 0 2.756 2.244 5 5 5s5-2.244 5-5c0-2.757-2.244-5-5-5m-2.016 4c.572 0 1.016.42 1.016 1 0 .548-.444 1-1.016 1A.997.997 0 0 1 10 13c0-.58.444-1 .984-1M15 12c.548 0 1 .42 1 1 0 .548-.452 1-1 1s-1-.452-1-1c0-.58.452-1 1-1m6.969 4.875c.218 0 .437.063.593.219l1.782 1.781.687-.687c.219-.22.469-.313.688-.313s.437.063.593.219l1.97 1.937a4.95 4.95 0 0 1 1.53 3.563c0 1.187-.437 2.406-1.343 3.5l1.25 1.25a.97.97 0 0 1 .281.687c0 .532-.437.969-.937.969-.22 0-.47-.094-.72-.281l-1.25-1.25a4.86 4.86 0 0 1-3.374 1.343c-1.25 0-2.5-.437-3.5-1.375l-2.032-2.03a.97.97 0 0 1-.28-.688c0-.219.062-.407.187-.594l.75-.75-1.688-1.687a1.1 1.1 0 0 1-.281-.688c0-.562.438-.969.969-.969.218 0 .437.063.593.188L20.22 23l2.75-2.75-1.688-1.719a.97.97 0 0 1-.281-.687c0-.5.469-.969.969-.969m3.781 3.344-5.5 5.5 1.156 1.187c.625.594 1.469.969 2.344.969.688 0 1.375-.219 1.938-.719l1.343-1.343a3.19 3.19 0 0 0 .844-2.157c0-.781-.281-1.531-.844-2.125z" clip-rule="evenodd"/></g><defs><clipPath id="a"><path fill="#fff" d="M0 0h32v32H0z"/></clipPath></defs></svg>
